dist/_assets/images/pc/facebook_icon.svg

<svg height="38.222" viewBox="0 0 38.455 38.222" width="38.455" xmlns="http://www.w3.org/2000/svg"><path d="m38.455 19.228a19.228 19.228 0 1 0 -22.232 18.994v-13.436h-4.882v-5.558h4.882v-4.236c0-4.819 2.871-7.481 7.263-7.481a29.568 29.568 0 0 1 4.3.376v4.732h-2.421c-2.389 0-3.133 1.482-3.133 3v3.607h5.333l-.852 5.558h-4.48v13.438a19.232 19.232 0 0 0 16.222-18.994z" fill="#fff"/></svg>

<svg xmlns="http://www.w3.org/2000/svg" width="38.455" height="38.222" viewBox="0 0 38.455 38.222">
  <path id="パス_896" data-name="パス 896" d="M38.455,19.228A19.228,19.228,0,1,0,16.223,38.222V24.786H11.341V19.228h4.882V14.992c0-4.819,2.871-7.481,7.263-7.481a29.568,29.568,0,0,1,4.3.376v4.732H25.365c-2.389,0-3.133,1.482-3.133,3v3.607h5.333l-.852,5.558h-4.48V38.222A19.232,19.232,0,0,0,38.455,19.228Z" fill="#fff"/>
</svg>
